public/img/Whix.co.svg

<svg width="127" height="28" viewBox="0 0 127 28" fill="none" xmlns="http://www.w3.org/2000/svg">
<path d="M7.5623 19.3805L8.06406 22.8355L8.79879 19.7224L13.9598 1.43959H16.8628L21.8984 19.7224L22.6152 22.8895L23.1707 19.3625L27.2207 1.43959H30.6793L24.3535 27.6401H21.2174L15.8414 8.54756L15.4292 6.55013L15.0171 8.54756L9.44391 27.6401H6.30789L0 1.43959H3.44067L7.5623 19.3805Z" fill="black" fill-opacity="0.3"/>
<path d="M37.3097 10.527C38.7792 8.71551 40.6907 7.80977 43.0442 7.80977C47.1419 7.80977 49.2087 10.1311 49.2445 14.7738V27.6401H45.9293V14.7558C45.9174 13.3522 45.5948 12.3145 44.9616 11.6427C44.3404 10.9709 43.3667 10.635 42.0406 10.635C40.9654 10.635 40.0216 10.9229 39.2093 11.4987C38.3969 12.0745 37.7637 12.8303 37.3097 13.7661V27.6401H33.9945V0H37.3097V10.527Z" fill="black" fill-opacity="0.3"/>
<path d="M57.8104 27.6401H54.4951V8.16967H57.8104V27.6401ZM54.2263 3.00514C54.2263 2.4653 54.3876 2.00943 54.7102 1.63753C55.0447 1.26564 55.5345 1.07969 56.1796 1.07969C56.8248 1.07969 57.3146 1.26564 57.6491 1.63753C57.9836 2.00943 58.1508 2.4653 58.1508 3.00514C58.1508 3.54499 57.9836 3.99486 57.6491 4.35476C57.3146 4.71465 56.8248 4.8946 56.1796 4.8946C55.5345 4.8946 55.0447 4.71465 54.7102 4.35476C54.3876 3.99486 54.2263 3.54499 54.2263 3.00514Z" fill="black" fill-opacity="0.3"/>
<path d="M69.6376 15.2776L73.9385 8.16967H77.8092L71.4655 17.7969L78.0064 27.6401H74.1714L69.6914 20.3522L65.2114 27.6401H61.3585L67.8994 17.7969L61.5557 8.16967H65.3906L69.6376 15.2776Z" fill="black" fill-opacity="0.3"/>
<path d="M81.4112 25.8946C81.4112 25.3188 81.5784 24.8389 81.9129 24.455C82.2594 24.0711 82.7731 23.8792 83.4541 23.8792C84.135 23.8792 84.6487 24.0711 84.9952 24.455C85.3536 24.8389 85.5328 25.3188 85.5328 25.8946C85.5328 26.4464 85.3536 26.9083 84.9952 27.2802C84.6487 27.6521 84.135 27.838 83.4541 27.838C82.7731 27.838 82.2594 27.6521 81.9129 27.2802C81.5784 26.9083 81.4112 26.4464 81.4112 25.8946Z" fill="black" fill-opacity="0.3"/>
<path d="M98.7937 25.2828C99.9764 25.2828 101.01 24.9229 101.894 24.2031C102.778 23.4833 103.268 22.5835 103.363 21.5039H106.499C106.44 22.6195 106.057 23.6812 105.352 24.6889C104.648 25.6967 103.704 26.5004 102.521 27.1003C101.35 27.7001 100.108 28 98.7937 28C96.1535 28 94.0508 27.1183 92.4858 25.3548C90.9327 23.5793 90.1562 21.156 90.1562 18.0848V17.527C90.1562 15.6315 90.5027 13.946 91.1956 12.4704C91.8885 10.9949 92.8801 9.84919 94.1703 9.03342C95.4725 8.21765 97.0077 7.80977 98.7758 7.80977C100.95 7.80977 102.754 8.46358 104.188 9.77121C105.633 11.0788 106.404 12.7764 106.499 14.8638H103.363C103.268 13.6041 102.79 12.5724 101.93 11.7686C101.082 10.9529 100.03 10.545 98.7758 10.545C97.0913 10.545 95.7831 11.1568 94.8513 12.3805C93.9314 13.5921 93.4714 15.3496 93.4714 17.653V18.2828C93.4714 20.5261 93.9314 22.2536 94.8513 23.4653C95.7712 24.6769 97.0853 25.2828 98.7937 25.2828Z" fill="black" fill-opacity="0.3"/>
<path d="M109.349 17.7249C109.349 15.8175 109.719 14.102 110.46 12.5784C111.212 11.0548 112.252 9.87918 113.578 9.05141C114.916 8.22365 116.439 7.80977 118.147 7.80977C120.788 7.80977 122.92 8.72751 124.545 10.563C126.182 12.3985 127 14.8398 127 17.8869V18.1208C127 20.0163 126.636 21.7198 125.907 23.2314C125.19 24.7309 124.157 25.9006 122.807 26.7404C121.469 27.5801 119.928 28 118.183 28C115.555 28 113.423 27.0823 111.786 25.2468C110.161 23.4113 109.349 20.982 109.349 17.9589V17.7249ZM112.682 18.1208C112.682 20.2802 113.178 22.0137 114.169 23.3213C115.173 24.629 116.511 25.2828 118.183 25.2828C119.868 25.2828 121.206 24.623 122.197 23.3033C123.189 21.9717 123.685 20.1123 123.685 17.7249C123.685 15.5895 123.177 13.862 122.162 12.5424C121.158 11.2108 119.82 10.545 118.147 10.545C116.511 10.545 115.191 11.1988 114.187 12.5064C113.184 13.8141 112.682 15.6855 112.682 18.1208Z" fill="black" fill-opacity="0.3"/>
</svg>

<svg width="127" height="28" fill="none" xmlns="http://www.w3.org/2000/svg"><path d="M7.562 19.38l.502 3.456.735-3.114 5.16-18.282h2.904l5.035 18.282.717 3.168.556-3.527L27.22 1.44h3.458l-6.325 26.2h-3.137L15.841 8.548 15.43 6.55l-.412 1.998L9.444 27.64H6.308L0 1.44h3.44l4.122 17.94zm29.748-8.853c1.47-1.811 3.38-2.717 5.734-2.717 4.098 0 6.165 2.321 6.2 6.964V27.64H45.93V14.756c-.012-1.404-.334-2.441-.967-3.113-.622-.672-1.595-1.008-2.921-1.008-1.076 0-2.02.288-2.832.864a5.859 5.859 0 00-1.9 2.267V27.64h-3.314V0h3.315v10.527zm20.5 17.113h-3.315V8.17h3.315v19.47zM54.226 3.005c0-.54.162-.996.484-1.367.335-.372.825-.558 1.47-.558s1.135.186 1.47.558c.334.371.5.827.5 1.367s-.166.99-.5 1.35c-.335.36-.825.54-1.47.54s-1.135-.18-1.47-.54c-.322-.36-.484-.81-.484-1.35zm15.412 12.273l4.3-7.108h3.871l-6.343 9.627 6.54 9.843h-3.835l-4.48-7.288-4.48 7.288H61.36l6.54-9.843-6.343-9.627h3.835l4.247 7.108zm11.773 10.617c0-.576.167-1.056.502-1.44.346-.384.86-.576 1.541-.576.681 0 1.195.192 1.541.576.359.384.538.864.538 1.44 0 .551-.18 1.013-.538 1.385-.346.372-.86.558-1.54.558-.682 0-1.196-.186-1.542-.558-.335-.372-.502-.834-.502-1.385zm17.383-.612c1.182 0 2.216-.36 3.1-1.08.884-.72 1.374-1.62 1.469-2.7h3.136c-.059 1.116-.442 2.178-1.147 3.186-.704 1.008-1.648 1.811-2.831 2.411a8.06 8.06 0 01-3.727.9c-2.64 0-4.743-.882-6.308-2.645-1.553-1.776-2.33-4.199-2.33-7.27v-.558c0-1.896.347-3.581 1.04-5.057.692-1.475 1.684-2.62 2.974-3.437 1.302-.815 2.838-1.223 4.606-1.223 2.174 0 3.978.654 5.412 1.961 1.445 1.308 2.216 3.005 2.311 5.093h-3.136c-.095-1.26-.573-2.292-1.433-3.095-.848-.816-1.9-1.224-3.154-1.224-1.685 0-2.993.612-3.925 1.835-.92 1.212-1.38 2.97-1.38 5.273v.63c0 2.243.46 3.97 1.38 5.182.92 1.212 2.234 1.818 3.943 1.818zm10.555-7.558c0-1.908.37-3.623 1.111-5.147.752-1.523 1.792-2.699 3.118-3.527 1.338-.827 2.861-1.241 4.569-1.241 2.641 0 4.773.918 6.398 2.753 1.637 1.835 2.455 4.277 2.455 7.324v.234c0 1.895-.364 3.599-1.093 5.11-.717 1.5-1.75 2.67-3.1 3.51-1.338.84-2.879 1.259-4.624 1.259-2.628 0-4.76-.918-6.397-2.753-1.625-1.836-2.437-4.265-2.437-7.288v-.234zm3.333.396c0 2.16.496 3.893 1.487 5.2 1.004 1.308 2.342 1.962 4.014 1.962 1.685 0 3.023-.66 4.014-1.98.992-1.331 1.488-3.19 1.488-5.578 0-2.136-.508-3.863-1.523-5.183-1.004-1.331-2.342-1.997-4.015-1.997-1.636 0-2.956.654-3.96 1.961-1.003 1.308-1.505 3.18-1.505 5.615z" fill="#000" fill-opacity=".3"/></svg>
